ghost/admin/public/assets/icons/event-logged-in--feature-attribution.svg

<svg width="24" height="24" viewBox="0 0 24 24" fill="none" xmlns="http://www.w3.org/2000/svg">
<path d="M4.00055 12H14.3105" stroke="#6C747D" stroke-width="1.71429" stroke-linecap="round" stroke-linejoin="round"/>
<path d="M11.2336 8.92383L14.3105 12.0008L11.2336 15.0777" stroke="#6C747D" stroke-width="1.71429" stroke-linecap="round" stroke-linejoin="round"/>
<path d="M4.99805 16.3077C5.88288 17.7657 7.1928 18.8823 8.73134 19.4902C10.2699 20.098 11.9541 20.1642 13.5314 19.6789C15.1087 19.1935 16.494 18.1828 17.4797 16.7984C18.4653 15.4139 18.998 13.7303 18.998 12C18.998 10.2697 18.4653 8.58611 17.4797 7.20164C16.494 5.81716 15.1087 4.80647 13.5314 4.32115C11.9541 3.83582 10.2699 3.90203 8.73134 4.50984C7.1928 5.11765 5.88288 6.2343 4.99805 7.69231" stroke="#6C747D" stroke-width="1.71429" stroke-linecap="round" stroke-linejoin="round"/>
</svg>

<svg width="24" height="24" viewBox="0 0 24 24" fill="none" xmlns="http://www.w3.org/2000/svg">
  <title>event-logged-in--feature-attribution</title>
  <path d="M4 12h10.31m-3.076-3.076L14.31 12l-3.076 3.077" stroke="#6C747D" stroke-width="1.714" stroke-linecap="round" stroke-linejoin="round"/>
  <path d="M4.998 16.308a7.69 7.69 0 0 0 3.733 3.182 7.238 7.238 0 0 0 4.8.189 7.608 7.608 0 0 0 3.949-2.88A8.283 8.283 0 0 0 18.998 12c0-1.73-.533-3.414-1.518-4.798a7.607 7.607 0 0 0-3.949-2.88 7.237 7.237 0 0 0-4.8.188 7.69 7.69 0 0 0-3.733 3.182" stroke="#6C747D" stroke-width="1.714" stroke-linecap="round" stroke-linejoin="round"/>
</svg>
